X: 8040
T: Connie In The Pool
R: polka
M: 2/4
K: Amajor
e>f ed|cd ec|d>e dc|Bc df|
e>f ed|cd ec|d>c dB|1 Aa gf:|2 A2 A (3e/f/g/||
|:ae cA|GA Bc|d>c de|fe c(3e/f/g/|
ae cA|GA Bc|d>c dB|1 A2 A (3e/f/g/:|2 Aa gf||

